static/assets/featured/featured_generic_storage.svg

<?xml version="1.0" encoding="UTF-8" standalone="no"?>
<!-- Created with Inkscape (http://www.inkscape.org/) -->

<svg
   xmlns:dc="http://purl.org/dc/elements/1.1/"
   xmlns:cc="http://creativecommons.org/ns#"
   xmlns:rdf="http://www.w3.org/1999/02/22-rdf-syntax-ns#"
   xmlns:svg="http://www.w3.org/2000/svg"
   xmlns="http://www.w3.org/2000/svg"
   xmlns:sodipodi="http://sodipodi.sourceforge.net/DTD/sodipodi-0.dtd"
   xmlns:inkscape="http://www.inkscape.org/namespaces/inkscape"
   width="2400"
   height="1200"
   viewBox="0 0 634.99999 317.50001"
   version="1.1"
   id="svg8"
   inkscape:version="0.92.5 (2060ec1f9f, 2020-04-08)"
   sodipodi:docname="featured_generic_storage.svg"
   inkscape:export-filename="/home/logan/Downloads/featured_images/completed_files_png/featured_generic_storage.png"
   inkscape:export-xdpi="96"
   inkscape:export-ydpi="96">
  <defs
     id="defs2" />
  <sodipodi:namedview
     id="base"
     pagecolor="#ffffff"
     bordercolor="#666666"
     borderopacity="1.0"
     inkscape:pageopacity="0.0"
     inkscape:pageshadow="2"
     inkscape:zoom="0.175"
     inkscape:cx="503.7734"
     inkscape:cy="925.82776"
     inkscape:document-units="px"
     inkscape:current-layer="layer2"
     showgrid="false"
     units="px"
     inkscape:snap-page="true"
     inkscape:window-width="1920"
     inkscape:window-height="1015"
     inkscape:window-x="0"
     inkscape:window-y="0"
     inkscape:window-maximized="1"
     inkscape:snap-object-midpoints="true" />
  <metadata
     id="metadata5">
    <rdf:RDF>
      <cc:Work
         rdf:about="">
        <dc:format>image/svg+xml</dc:format>
        <dc:type
           rdf:resource="http://purl.org/dc/dcmitype/StillImage" />
        <dc:title />
      </cc:Work>
    </rdf:RDF>
  </metadata>
  <g
     inkscape:label="Background"
     inkscape:groupmode="layer"
     id="layer1"
     transform="translate(0,20.50002)">
    <rect
       style="fill:#000000;stroke-width:0.26458335"
       id="rect10"
       width="635"
       height="317.5"
       x="0"
       y="-20.500019" />
  </g>
  <g
     inkscape:groupmode="layer"
     id="layer2"
     inkscape:label="Layer1">
    <g
       style=""
       id="g879"
       transform="matrix(1.4999975,0,0,1.4999975,6.8039502,16.576152)">
      <path
         style="fill:#fffffd;fill-opacity:1;stroke-width:6.61458397"
         id="path4"
         d="m 140.9853,147.69948 h 132.29149 v -26.4585 H 140.9853 Z m 13.229,-19.84375 h 13.22925 v 13.229 H 154.2143 Z m -13.229,-85.989762 v 26.4585 h 132.29149 v -26.4585 z m 26.45825,19.84375 H 154.2143 v -13.229 h 13.22925 z M 140.9853,108.01197 H 273.27679 V 81.553473 H 140.9853 Z m 13.229,-19.843747 h 13.22925 V 101.39722 H 154.2143 Z"
         inkscape:connector-curvature="0" />
      <rect
         y="48.480721"
         x="154.21429"
         height="13.229"
         width="13.22925"
         id="rect842"
         style="fill:#00ff00;fill-opacity:1;stroke:none;stroke-width:0.38179374;stroke-miterlimit:4;stroke-dasharray:none;stroke-opacity:1" />
      <rect
         y="88.168221"
         x="154.21431"
         height="13.229"
         width="13.22925"
         id="rect842-3"
         style="fill:#00ff00;fill-opacity:1;stroke:none;stroke-width:0.38179374;stroke-miterlimit:4;stroke-dasharray:none;stroke-opacity:1" />
      <rect
         y="127.85572"
         x="154.21431"
         height="13.229"
         width="13.22925"
         id="rect842-6"
         style="fill:#00ff00;fill-opacity:1;stroke:none;stroke-width:0.38179374;stroke-miterlimit:4;stroke-dasharray:none;stroke-opacity:1" />
    </g>
  </g>
</svg>

<svg xmlns="http://www.w3.org/2000/svg" width="2400" height="1200" viewBox="0 0 635 317.5"><path style="fill:#000;stroke-width:.26458335" d="M0-20.5h635V297H0z" transform="translate(0 20.5)"/><g><path style="fill:#fffffd;fill-opacity:1;stroke-width:6.61458397" d="M140.985 147.7h132.292V121.24H140.985Zm13.23-19.844h13.229v13.229h-13.23Zm-13.23-85.99v26.458h132.292V41.866zm26.459 19.844h-13.23V48.48h13.23zm-26.459 46.302h132.292V81.553H140.985Zm13.23-19.844h13.229v13.23h-13.23Z" transform="matrix(1.5 0 0 1.5 6.804 16.576)"/><path style="fill:#0f0;fill-opacity:1;stroke:none;stroke-width:.38179374;stroke-miterlimit:4;stroke-dasharray:none;stroke-opacity:1" d="M154.214 48.481h13.229V61.71h-13.229zM154.214 88.168h13.229v13.229h-13.229zM154.214 127.856h13.229v13.229h-13.229z" transform="matrix(1.5 0 0 1.5 6.804 16.576)"/></g></svg>
